icons/building-line.svg

<svg xmlns="http://www.w3.org/2000/svg" viewBox="0 0 24 24">
    <g>
        <path fill="none" d="M0 0h24v24H0z"/>
        <path d="M21 19h2v2H1v-2h2V4a1 1 0 0 1 1-1h10a1 1 0 0 1 1 1v15h4v-8h-2V9h3a1 1 0 0 1 1 1v9zM5 5v14h8V5H5zm2 6h4v2H7v-2zm0-4h4v2H7V7z"/>
    </g>
</svg>

<svg viewBox="0 0 24 24" fill="currentColor" xmlns="http://www.w3.org/2000/svg">
    <path d="M21 19H23V21H1V19H3V4C3 3.44772 3.44772 3 4 3H14C14.5523 3 15 3.44772 15 4V19H19V11H17V9H20C20.5523 9 21 9.44772 21 10V19ZM5 5V19H13V5H5ZM7 11H11V13H7V11ZM7 7H11V9H7V7Z"/>
</svg>
